src/img/ic_trading.svg

<svg height="49.792" viewBox="0 0 49 49.792" width="49" xmlns="http://www.w3.org/2000/svg"><path d="m37.207-28.7-15.671-5.979a4.878 4.878 0 0 0 -1.736-.321 4.878 4.878 0 0 0 -1.738.321l-15.673 5.979a3.712 3.712 0 0 0 -2.389 3.467v20.062a3.712 3.712 0 0 0 2.389 3.471l15.671 5.975a4.878 4.878 0 0 0 1.74.325 4.878 4.878 0 0 0 1.738-.321l15.669-5.979a3.712 3.712 0 0 0 2.393-3.471v-20.062a3.712 3.712 0 0 0 -2.393-3.467z" fill="#03cfcd" transform="translate(0 35)"/><path d="m37.207-28.7-15.671-5.979a4.878 4.878 0 0 0 -1.736-.321 4.878 4.878 0 0 0 -1.738.321l-15.673 5.979a3.712 3.712 0 0 0 -2.389 3.467v20.062a3.712 3.712 0 0 0 2.389 3.471l15.671 5.975a4.878 4.878 0 0 0 1.74.325 4.878 4.878 0 0 0 1.738-.321l15.669-5.979a3.712 3.712 0 0 0 2.393-3.471v-20.062a3.712 3.712 0 0 0 -2.393-3.467z" fill="#303fd0" transform="translate(9.404 45.196)"/><path d="m8.656 29.08-8.656-3.303v-16.01a3.714 3.714 0 0 1 2.389-3.467l15.671-5.98a4.88 4.88 0 0 1 3.476 0l8.656 3.3v16.01a3.712 3.712 0 0 1 -2.392 3.47l-15.668 5.98a4.88 4.88 0 0 1 -3.476 0z" fill="#50d0fe" transform="translate(9.404 10.196)"/><path d="m17.6-8.25h-10.378a2.44 2.44 0 0 0 -2.255 1.506 2.438 2.438 0 0 0 .533 2.661l2.29 2.292-5.955 5.955a2.441 2.441 0 0 0 0 3.451l1.725 1.726a2.441 2.441 0 0 0 3.452 0l5.954-5.955 2.294 2.294a2.441 2.441 0 0 0 4.167-1.726v-10.373a1.831 1.831 0 0 0 -1.827-1.831zm-17.552 36h10.37a2.441 2.441 0 0 0 1.726-4.167l-2.293-2.297 5.954-5.955a2.441 2.441 0 0 0 0-3.452l-1.725-1.724a2.441 2.441 0 0 0 -3.452 0l-5.954 5.954-2.294-2.293a2.441 2.441 0 0 0 -4.167 1.726v10.373a1.831 1.831 0 0 0 1.831 1.831z" fill="#fff" transform="matrix(.70710678 -.70710678 .70710678 .70710678 10.37 24.136)"/></svg>

<svg xmlns="http://www.w3.org/2000/svg" width="49" height="49.792" viewBox="0 0 49 49.792">
  <g id="ic_trading" transform="translate(-394 -2441)">
    <path id="Path_505" data-name="Path 505" d="M37.207-28.7,21.536-34.679A4.878,4.878,0,0,0,19.8-35a4.878,4.878,0,0,0-1.738.321L2.389-28.7A3.712,3.712,0,0,0,0-25.233V-5.171A3.712,3.712,0,0,0,2.389-1.7L18.06,4.275A4.878,4.878,0,0,0,19.8,4.6a4.878,4.878,0,0,0,1.738-.321L37.207-1.7A3.712,3.712,0,0,0,39.6-5.171V-25.233A3.712,3.712,0,0,0,37.207-28.7Z" transform="translate(394 2476)" fill="#03cfcd"/>
    <path id="Path_506" data-name="Path 506" d="M37.207-28.7,21.536-34.679A4.878,4.878,0,0,0,19.8-35a4.878,4.878,0,0,0-1.738.321L2.389-28.7A3.712,3.712,0,0,0,0-25.233V-5.171A3.712,3.712,0,0,0,2.389-1.7L18.06,4.275A4.878,4.878,0,0,0,19.8,4.6a4.878,4.878,0,0,0,1.738-.321L37.207-1.7A3.712,3.712,0,0,0,39.6-5.171V-25.233A3.712,3.712,0,0,0,37.207-28.7Z" transform="translate(403.404 2486.196)" fill="#303fd0"/>
    <path id="Intersection_4" data-name="Intersection 4" d="M8.656,29.08,0,25.777V9.767A3.714,3.714,0,0,1,2.389,6.3L18.06.32a4.88,4.88,0,0,1,3.476,0l8.656,3.3v16.01A3.712,3.712,0,0,1,27.8,23.1L12.132,29.08a4.88,4.88,0,0,1-3.476,0Z" transform="translate(403.404 2451.196)" fill="#50d0fe"/>
    <path id="Path_161" data-name="Path 161" d="M17.6-8.25H7.222A2.44,2.44,0,0,0,4.967-6.744,2.438,2.438,0,0,0,5.5-4.083L7.79-1.791,1.835,4.164a2.441,2.441,0,0,0,0,3.451L3.56,9.341a2.441,2.441,0,0,0,3.452,0l5.954-5.955L15.26,5.68a2.441,2.441,0,0,0,4.167-1.726V-6.419A1.831,1.831,0,0,0,17.6-8.25Zm-17.552,36H10.418a2.441,2.441,0,0,0,1.726-4.167L9.851,21.286l5.954-5.955a2.441,2.441,0,0,0,0-3.452L14.08,10.155a2.441,2.441,0,0,0-3.452,0L4.674,16.109,2.38,13.816a2.441,2.441,0,0,0-4.167,1.726V25.915A1.831,1.831,0,0,0,.044,27.746Z" transform="translate(404.37 2465.136) rotate(-45)" fill="#fff"/>
  </g>
</svg>
